!!!COM: Schubert, Franz
!!!CNT: Deutscher
!!!TXO: Deutsch
!!!OTL: "Mit dem gruenen Lautenbande"
!!!OPR: Die schoene Muellerin
!!!LYR: Mu2ller, Wilhelm
!!!OPS: Opus 25
!!!ONM: No. 13
!!!ODT: 1823/
!!NB: Vocal melody only encoded.
**kern	**silbe
*clefG2	*
*k[b-e-]	*
*M2/4	*
*MM[massig]	*
=4	=4
{8dd	{Schad'
16cc	um
16a	das
8b-	scho2-
8f	-ne
=5	=5
8ee-	gru2-
8dd	-ne
8.cc}	Band,}
{16cc	{dass
=6	=6
8ff	es
16ee-	ver-
16dd	|
8dd	-bleicht
16cc	heir
16a	|
=7	=7
8b-	an
8cc	der
8dd}	Wand,}
{8dd	{ich
=8	=8
8.cc	hab'
16cc	das
16dd	Gru2n
16cc	|
16b-	so
16a	|
=9	=9
(16b-	gern,
16dd	|
4ff)}	|}
{8ff	{ich
=10	=10
8ff	hab'
16g	|
16g	das
8ee-	Gru2n
ffq	|
ee-q	|
16dd	|
16cc	so
=11	=11
4b-}	gern.}
8r	.
{8dd	{So
=12	=12
8cc	sprachst
8f	du,
8.ff	Lieb-
16a	-chen,
=13	=13
8b-	heut'
8cc	zu
8dd}	mir,}
{8ff	{gleich
=14	=14
16f	knu2pf'
16g	ich's
16a	ab
16b-	und
8.cc	send'
16en	es
=15	=15
4f}	dir.}
8r	.
{8f	{Nun
=16	=16
8.cc	hab'
16cc	das
16dd	Gru2-
16cc	|
16b-	-ne
16a	|
=17	=17
(16b-	gern,
16dd	|
4ff)}	|}
{8ff	{nun
=18	=18
8ff	hab'
16g	|
16g	das
8ee-	Gru2
ffq	|
ee-q	|
16dd	|
16cc	-ne
=19	=19
8b-}	gern}
8r	.
4r	.
*-	*-
